X:1
T:Title
%%score { ( 1 4 ) | ( 2 3 ) }
L:1/8
M:4/4
K:Bb
V:1 treble nm="Grand Piano"
V:4 treble 
V:2 bass 
V:3 bass 
V:1
 z4 z2[Q:1/4=100] F2 | B3 F DB,DF | [FB]2 [Fc]2 [Fd]2 z [Bd] | %3
 [Ac]3 [GB] [FA][EG][K:bass][F,DF][F,CE] | [F,B,D]2[K:treble] [B,EG]2 [B,DF]2 z F | B3 F D>B, DF | %6
 [FB]2 [Fc]2 [Fd]2 z [Fd] | c3 A F=EF[=B,FG] |[M:3/4] [CFA]2 [B,=EG]2 [A,F]2 |[M:1/4] z2 | %10
[M:4/4] z2 .[CE]2 .[CE]2 z2 | z2 .[B,D]2 .[DF]2 F>F | G>^F G>A [GB]>[GA] [GB]>[Gc] | [^Fd]6 z2 | %14
 A6 z2 | B6 z2 | G>[Ge] [Gd]>[Gc] [FB]2 [EA]2 |[M:3/4] [DB]6 |] %18
V:2
 z4 z2 F,2 | B,3 F, D,B,,D,F, | [D,F,]2 [F,A,]2 [B,,B,]2 z [B,,B,] | F,3 F, F,F,F,,F,, | %4
 B,,2 B,,2 B,,2 z F, | B,3 F, D,>B,, D,F, | [D,F,]2 [F,A,]2 [B,,B,]2 z [B,,B,] | %7
 [F,A,F]3 [F,A,C] [D,A,D][D,A,D][D,=B,]D, |[M:3/4] C,2 C,2 F,2 |[M:1/4][K:treble] F>B | %10
[M:4/4] A6[K:bass][K:treble] z2 | B6[K:bass] z2 | E2 E2 z4 | [D,A,]2 .D,2 .D,2 z2 | %14
 z2 .[F,C]2 .[F,C]2 z2 | z2 .[B,,B,]2 .[B,,B,]2 [D,B,]>[D,B,] | %16
 [E,B,E]>[C,C] [E,=B,]>[E,C] [F,D]2 [F,C]2 |[M:3/4] [B,,B,]6 |] %18
V:3
 x8 | x8 | x8 | x8 | x8 | x8 | x8 | x8 |[M:3/4] x6 |[M:1/4][K:treble] x2 | %10
[M:4/4] z2[K:bass] .F,2 .F,2[K:treble] F>c | z2[K:bass] .B,,2 .B,,2 [D,B,]2 | %12
 [E,B,]->[E,B,E] [E,B,]->[E,B,E] [E,B,]2 [E,G,]2 | x8 | x8 | x8 | x8 |[M:3/4] x6 |] %18
V:4
 x8 | x8 | x8 | x6[K:bass] x2 | x2[K:treble] x6 | x8 | x8 | x8 |[M:3/4] x6 |[M:1/4] x2 | %10
[M:4/4] x8 | x8 | x8 | z2 .D2 .D2 =F>B | z2 .E2 .E2 F>c | z2 .D2 .D2 F>F | x8 |[M:3/4] x6 |] %18

